public/img/svg/airbnb.svg

<svg width="195" height="61" viewBox="0 0 195 61" fill="none" xmlns="http://www.w3.org/2000/svg">
<g clip-path="url(#clip0_47_873)">
<path d="M55.7455 42.878C55.4405 42.1406 55.1545 41.3655 54.8494 40.7037L53.4386 37.5464L53.3814 37.4897C49.1871 28.4147 44.7068 19.1884 39.9596 10.1134L39.7689 9.7353C39.2923 8.84671 38.8157 7.86358 38.32 6.95608C37.7099 5.87843 37.1189 4.72515 36.1466 3.62858C35.1988 2.48122 34.006 1.55681 32.6542 0.922068C31.3025 0.287322 29.8255 -0.0419312 28.3299 -0.0419312C26.8342 -0.0419312 25.3572 0.287322 24.0055 0.922068C22.6537 1.55681 21.4609 2.48122 20.5132 3.62858C19.6171 4.72515 18.9498 5.87843 18.3397 6.95608C17.8631 7.93921 17.3865 8.90343 16.8908 9.79202L16.7001 10.1701C12.0292 19.2451 7.47261 28.4714 3.27828 37.5464L3.16389 37.6598C2.74446 38.643 2.24877 39.6639 1.77214 40.7605C1.4671 41.4222 1.16205 42.1406 0.857011 42.9347C0.0334598 45.014 -0.229526 47.2702 0.0939718 49.4809C0.41747 51.6917 1.31629 53.7807 2.70184 55.5421C4.08739 57.3035 5.91185 58.6765 7.99542 59.5258C10.079 60.375 12.3497 60.6712 14.5839 60.3851C16.7258 60.1055 18.7883 59.398 20.6466 58.3055C23.1251 56.9253 25.5082 54.9212 28.1773 52.0286C30.8465 54.9212 33.2868 56.9253 35.7081 58.3244C38.0365 59.6797 40.6733 60.4277 43.3722 60.4986C46.4977 60.5115 49.5223 59.4026 51.8876 57.3766C54.253 55.3507 55.7993 52.5445 56.2412 49.4762C56.7518 47.2713 56.5791 44.9649 55.7455 42.8591V42.878ZM28.368 46.0164C25.0888 41.857 22.9535 38.038 22.229 34.7672C21.9289 33.5552 21.8642 32.2976 22.0384 31.0616C22.1718 30.0973 22.5341 29.2466 23.0298 28.5281C24.1737 26.8833 26.1755 25.8623 28.368 25.8623C29.4092 25.8308 30.442 26.0561 31.3737 26.5181C32.3055 26.9801 33.1069 27.6643 33.7062 28.5092C34.2019 29.2655 34.5642 30.0973 34.6785 31.0616C34.8692 32.1581 34.7929 33.4248 34.4879 34.7672C33.7634 37.9812 31.6281 41.8381 28.368 46.0164ZM52.657 48.8145C52.4403 50.3723 51.8159 51.8466 50.8458 53.0905C49.8758 54.3345 48.5939 55.3046 47.1281 55.9044C45.6791 56.5094 44.0776 56.6795 42.5143 56.5094C40.9891 56.3203 39.4639 55.8287 37.9005 54.9212C35.3048 53.3303 32.9708 51.3536 30.9799 49.0603C34.9836 44.1447 37.4049 39.6639 38.32 35.6747C38.7585 33.7841 38.8157 32.0825 38.625 30.5133C38.387 29.0259 37.8277 27.6071 36.9854 26.3539C36.0238 24.995 34.7402 23.8912 33.2476 23.1396C31.7549 22.388 30.0989 22.0115 28.4252 22.0433C24.8981 22.0433 21.7524 23.6692 19.8459 26.335C18.9876 27.585 18.433 29.0151 18.2253 30.5133C17.9775 32.1014 18.0347 33.8597 18.5304 35.6747C19.4455 39.6639 21.924 44.2014 25.8705 49.0981C23.9134 51.4352 21.5739 53.4293 18.9498 54.9969C17.3674 55.9044 15.8613 56.377 14.3361 56.5661C11.9641 56.8674 9.56815 56.2281 7.66891 54.7872C5.76966 53.3463 4.52067 51.2203 4.19341 48.8712C4.00276 47.3587 4.13621 45.8462 4.7463 44.1447C4.93695 43.5397 5.22292 42.9347 5.52797 42.2162C5.9474 41.2331 6.44309 40.2122 6.91972 39.1912L6.99598 39.0589C11.114 30.0406 15.6134 20.8333 20.2844 11.815L20.475 11.4369C20.9517 10.5294 21.4283 9.56515 21.924 8.65765C22.4197 7.69343 22.9535 6.76702 23.6398 6.01077C24.2339 5.3075 24.9763 4.74192 25.8146 4.35386C26.6529 3.9658 27.5668 3.76469 28.4919 3.76469C29.4171 3.76469 30.3309 3.9658 31.1693 4.35386C32.0076 4.74192 32.7499 5.3075 33.344 6.01077C34.0113 6.76702 34.5642 7.69343 35.0598 8.65765C35.5365 9.56515 36.0131 10.5483 36.5088 11.4369L36.6994 11.815C41.3513 20.8333 45.8507 30.0406 50.045 39.0589L50.1022 39.1156C50.5979 40.0987 51.0174 41.1953 51.494 42.1406C51.799 42.878 52.1041 43.4641 52.2947 44.088C52.657 45.7895 52.8476 47.302 52.657 48.8145V48.8145ZM79.1956 45.6005C77.759 45.6213 76.3361 45.3211 75.0324 44.7222C73.7287 44.1232 72.5777 43.2409 71.6649 42.1406C69.6136 39.7962 68.5249 36.7733 68.6145 33.6706C68.5831 30.5004 69.7069 27.4256 71.7793 25.0116C72.7379 23.8973 73.9311 23.0049 75.2751 22.3973C76.619 21.7898 78.0809 21.4818 79.5578 21.495C80.9476 21.4573 82.3241 21.7706 83.5581 22.4056C84.7921 23.0407 85.843 23.9764 86.6119 25.125L86.8026 22.1567H92.3696V44.9955H86.7835L86.5929 41.668C85.8001 42.8943 84.7043 43.8994 83.4097 44.5876C82.115 45.2759 80.6644 45.6246 79.1956 45.6005V45.6005ZM80.6446 40.1555C81.7503 40.1555 82.7227 39.853 83.6378 39.3047C84.4766 38.6997 85.163 37.9056 85.6968 36.9414C86.1734 35.9772 86.4213 34.8239 86.4213 33.5383C86.4956 32.4217 86.2764 31.305 85.7852 30.2976C85.2939 29.2902 84.5475 28.4264 83.6187 27.7908C82.7263 27.2394 81.696 26.9471 80.6446 26.9471C79.5931 26.9471 78.5628 27.2394 77.6704 27.7908C76.8315 28.3958 76.1452 29.1898 75.6114 30.1541C75.1072 31.2174 74.8592 32.3825 74.8869 33.5572C74.8126 34.6738 75.0317 35.7904 75.523 36.7979C76.0142 37.8053 76.7607 38.6691 77.6895 39.3047C78.5855 39.853 79.5578 40.1555 80.6446 40.1555ZM101.902 15.9933C101.902 16.655 101.788 17.26 101.483 17.7516C101.178 18.2242 100.758 18.6591 100.205 18.9616C99.6525 19.2641 99.0615 19.3775 98.4514 19.3775C97.8413 19.3775 97.2312 19.2641 96.6783 18.9616C96.1554 18.6729 95.7157 18.2563 95.401 17.7516C95.1057 17.213 94.9609 16.606 94.9815 15.9933C94.9815 15.3126 95.115 14.7076 95.401 14.235C95.706 13.6678 96.1445 13.3275 96.6783 13.025C97.2312 12.7225 97.8222 12.5901 98.4514 12.5901C99.0582 12.5763 99.6584 12.7188 100.193 13.0038C100.728 13.2888 101.179 13.7065 101.502 14.2161C101.779 14.7673 101.917 15.3774 101.902 15.9933V15.9933ZM95.42 44.9198V22.1189H101.483V44.9576H95.401L95.42 44.9198ZM117.688 28.0933V28.1689C117.402 28.0366 117.021 27.9798 116.735 27.9231C116.354 27.8475 116.048 27.8475 115.686 27.8475C113.989 27.8475 112.712 28.3391 111.873 29.36C110.958 30.3998 110.539 31.8556 110.539 33.7273V44.9387H104.457V22.1H110.043L110.234 25.5598C110.844 24.3498 111.568 23.4423 112.598 22.7617C113.622 22.1004 114.827 21.7701 116.048 21.8164C116.487 21.8164 116.906 21.8542 117.269 21.9298C117.459 21.9866 117.574 21.9866 117.688 22.0433V28.0933V28.0933ZM120.128 44.9198V12.7414H126.191V25.0305C127.049 23.9339 128.021 23.0831 129.242 22.4214C131.173 21.4822 133.368 21.2158 135.471 21.6651C137.574 22.1145 139.463 23.2534 140.833 24.8981C142.889 27.2474 143.978 30.2779 143.884 33.387C143.915 36.5572 142.791 39.632 140.719 42.0461C139.76 43.1604 138.567 44.0527 137.223 44.6603C135.879 45.2679 134.417 45.5759 132.94 45.5626C131.55 45.6004 130.174 45.287 128.94 44.652C127.706 44.017 126.655 43.0812 125.886 41.9326L125.695 44.9009L120.128 44.9576V44.9198ZM131.853 40.1555C132.94 40.1555 133.913 39.853 134.828 39.3047C135.667 38.6997 136.353 37.9056 136.887 36.9414C137.382 35.9772 137.611 34.8239 137.611 33.5383C137.611 32.2716 137.382 31.1183 136.887 30.1541C136.386 29.2243 135.683 28.417 134.828 27.7908C133.935 27.2394 132.905 26.9471 131.853 26.9471C130.802 26.9471 129.772 27.2394 128.879 27.7908C128.021 28.3958 127.354 29.1898 126.801 30.1541C126.297 31.2174 126.049 32.3825 126.077 33.5572C126.002 34.6738 126.222 35.7904 126.713 36.7979C127.204 37.8053 127.951 38.6691 128.879 39.3047C129.775 39.853 130.748 40.1555 131.853 40.1555ZM146.171 44.9387V22.1H151.757L151.948 25.0683C152.65 23.9305 153.646 22.9993 154.832 22.3711C156.019 21.7429 157.353 21.4404 158.697 21.495C160.234 21.4687 161.745 21.8922 163.04 22.7128C164.335 23.5333 165.358 24.7143 165.98 26.1081C166.647 27.545 167.01 29.3222 167.01 31.3073V44.9955H160.928V32.1014C160.928 30.5133 160.566 29.2655 159.841 28.3391C159.117 27.4316 158.125 26.94 156.867 26.94C155.952 26.94 155.151 27.1291 154.446 27.545C153.778 27.9798 153.225 28.5281 152.806 29.3033C152.382 30.0868 152.172 30.9667 152.196 31.8556V44.9387H146.171V44.9387ZM170.041 44.9387V12.7225H176.123V25.0116C176.946 23.9089 178.018 23.0118 179.253 22.3915C180.487 21.7713 181.85 21.4449 183.234 21.4383C184.671 21.4174 186.094 21.7176 187.397 22.3166C188.701 22.9155 189.852 23.7978 190.765 24.8981C192.806 27.2473 193.887 30.2685 193.796 33.3681C193.829 36.5386 192.705 39.614 190.631 42.0272C189.673 43.1415 188.479 44.0338 187.135 44.6414C185.792 45.249 184.33 45.557 182.853 45.5437C181.463 45.5815 180.086 45.2681 178.852 44.6331C177.618 43.9981 176.568 43.0623 175.799 41.9137L175.627 44.882L170.041 44.9387V44.9387ZM181.823 40.1555C182.929 40.1555 183.901 39.853 184.797 39.3047C185.655 38.6997 186.323 37.9056 186.875 36.9414C187.352 35.9772 187.6 34.8239 187.6 33.5383C187.674 32.4217 187.455 31.305 186.964 30.2976C186.473 29.2902 185.726 28.4264 184.797 27.7908C183.905 27.2394 182.875 26.9471 181.823 26.9471C180.772 26.9471 179.741 27.2394 178.849 27.7908C178.01 28.3958 177.324 29.1898 176.79 30.1541C176.258 31.2079 176.008 32.3799 176.066 33.5572C175.991 34.6738 176.21 35.7904 176.702 36.7979C177.193 37.8053 177.939 38.6691 178.868 39.3047C179.764 39.853 180.679 40.1555 181.823 40.1555Z" fill="#E3E4E6" fill-opacity="0.55"/>
</g>
<defs>
<clipPath id="clip0_47_873">
<rect width="194.464" height="60.5" fill="white"/>
</clipPath>
</defs>
</svg>

<svg width="195" height="61" fill="none" xmlns="http://www.w3.org/2000/svg"><g clip-path="url(#a)"><path d="M55.745 42.878c-.304-.737-.59-1.513-.896-2.174l-1.41-3.158-.058-.056c-4.194-9.075-8.674-18.302-13.421-27.377l-.191-.378c-.477-.888-.953-1.871-1.449-2.779-.61-1.078-1.201-2.23-2.173-3.327A10.093 10.093 0 0 0 32.654.922a10.175 10.175 0 0 0-8.649 0 10.092 10.092 0 0 0-3.492 2.707c-.896 1.096-1.563 2.25-2.173 3.327a56.317 56.317 0 0 1-1.45 2.836l-.19.378c-4.67 9.075-9.227 18.301-13.422 27.376l-.114.114c-.42.983-.915 2.004-1.392 3.1-.305.662-.61 1.38-.915 2.175a12.757 12.757 0 0 0-.763 6.546c.323 2.21 1.222 4.3 2.608 6.061a12.954 12.954 0 0 0 5.293 3.984 13.064 13.064 0 0 0 6.589.86 16.067 16.067 0 0 0 6.063-2.08c2.478-1.38 4.861-3.385 7.53-6.277 2.67 2.892 5.11 4.896 7.531 6.295a16.076 16.076 0 0 0 7.664 2.175 13.01 13.01 0 0 0 8.516-3.122 12.808 12.808 0 0 0 4.353-7.9c.51-2.206.338-4.512-.495-6.618v.019Zm-27.377 3.138c-3.28-4.159-5.415-7.978-6.139-11.249a9.753 9.753 0 0 1-.19-3.705 5.854 5.854 0 0 1 .99-2.534c1.145-1.645 3.146-2.666 5.339-2.666a6.336 6.336 0 0 1 3.006.656 6.277 6.277 0 0 1 2.332 1.991c.496.756.858 1.588.972 2.553.191 1.096.115 2.363-.19 3.705-.725 3.214-2.86 7.071-6.12 11.25Zm24.289 2.799a8.96 8.96 0 0 1-1.811 4.276 9.067 9.067 0 0 1-3.718 2.813c-1.449.605-3.05.775-4.614.605-1.525-.189-3.05-.68-4.614-1.588a29.752 29.752 0 0 1-6.92-5.86c4.004-4.916 6.425-9.397 7.34-13.386.438-1.89.496-3.592.305-5.162a10.403 10.403 0 0 0-1.64-4.16 10.194 10.194 0 0 0-3.737-3.213 10.29 10.29 0 0 0-4.823-1.097c-3.527 0-6.673 1.626-8.58 4.292a9.745 9.745 0 0 0-1.62 4.178 12.345 12.345 0 0 0 .305 5.162c.915 3.989 3.394 8.526 7.34 13.423a27.26 27.26 0 0 1-6.92 5.899c-1.583.907-3.089 1.38-4.614 1.57a9.13 9.13 0 0 1-6.667-1.78 8.984 8.984 0 0 1-3.476-5.916c-.19-1.512-.057-3.025.553-4.726.19-.605.477-1.21.782-1.929.42-.983.915-2.004 1.392-3.025l.076-.132a616.297 616.297 0 0 1 13.288-27.244l.191-.378c.477-.908.953-1.872 1.449-2.78.496-.964 1.03-1.89 1.716-2.646a6.324 6.324 0 0 1 2.175-1.657 6.374 6.374 0 0 1 5.354 0 6.33 6.33 0 0 1 2.175 1.657c.667.756 1.22 1.682 1.716 2.647.476.907.953 1.89 1.449 2.779l.19.378a746.58 746.58 0 0 1 13.346 27.244l.057.057c.496.983.915 2.08 1.392 3.025.305.737.61 1.323.8 1.947.363 1.701.554 3.214.363 4.727ZM79.196 45.6a9.64 9.64 0 0 1-4.164-.878 9.56 9.56 0 0 1-3.367-2.581 12.32 12.32 0 0 1-3.05-8.47 13.092 13.092 0 0 1 3.164-8.66 10.097 10.097 0 0 1 3.496-2.614 10.178 10.178 0 0 1 4.283-.902 8.255 8.255 0 0 1 4 .91 8.175 8.175 0 0 1 3.054 2.72l.19-2.968h5.568v22.838h-5.587l-.19-3.327a8.59 8.59 0 0 1-3.183 2.92 8.676 8.676 0 0 1-4.214 1.012Zm1.449-5.444c1.105 0 2.078-.303 2.993-.851.839-.605 1.525-1.4 2.059-2.364.476-.964.724-2.117.724-3.403a6.42 6.42 0 0 0-.636-3.24 6.481 6.481 0 0 0-2.166-2.507 5.659 5.659 0 0 0-5.949 0c-.838.605-1.525 1.399-2.059 2.363a7.527 7.527 0 0 0-.724 3.403 6.42 6.42 0 0 0 .636 3.24 6.48 6.48 0 0 0 2.166 2.508c.897.548 1.869.85 2.956.85Zm21.257-24.163c0 .662-.114 1.267-.419 1.759a3.564 3.564 0 0 1-1.278 1.21c-.552.302-1.144.416-1.754.416-.61 0-1.22-.114-1.773-.416a3.496 3.496 0 0 1-1.277-1.21 3.418 3.418 0 0 1-.42-1.759c0-.68.134-1.285.42-1.758.305-.567.743-.907 1.277-1.21a3.62 3.62 0 0 1 1.773-.435 3.532 3.532 0 0 1 1.742.414c.535.285.986.703 1.309 1.212.277.551.415 1.161.4 1.777ZM95.42 44.92V22.119h6.063v22.839h-6.082l.019-.038Zm22.268-16.827v.076c-.286-.132-.667-.19-.953-.246-.381-.075-.687-.075-1.049-.075-1.697 0-2.974.491-3.813 1.512-.915 1.04-1.334 2.496-1.334 4.367V44.94h-6.082V22.1h5.586l.191 3.46c.61-1.21 1.334-2.118 2.364-2.798a5.945 5.945 0 0 1 3.45-.946c.439 0 .858.038 1.221.114.19.057.305.057.419.113v6.05Zm2.44 16.827V12.74h6.063v12.29c.858-1.097 1.83-1.948 3.051-2.61a9.643 9.643 0 0 1 6.229-.756 9.583 9.583 0 0 1 5.362 3.233 12.322 12.322 0 0 1 3.051 8.489 13.097 13.097 0 0 1-3.165 8.66 10.101 10.101 0 0 1-3.496 2.613 10.176 10.176 0 0 1-4.283.903 8.252 8.252 0 0 1-4-.911 8.175 8.175 0 0 1-3.054-2.72l-.191 2.969-5.567.057v-.038Zm11.725-4.764c1.087 0 2.06-.303 2.975-.851.839-.605 1.525-1.4 2.059-2.364.495-.964.724-2.117.724-3.403 0-1.266-.229-2.42-.724-3.384a7.11 7.11 0 0 0-2.059-2.363 5.662 5.662 0 0 0-5.949 0c-.858.605-1.525 1.399-2.078 2.363a7.526 7.526 0 0 0-.724 3.403 6.415 6.415 0 0 0 .636 3.24 6.484 6.484 0 0 0 2.166 2.508c.896.548 1.869.85 2.974.85Zm14.318 4.783V22.1h5.586l.191 2.968a7.527 7.527 0 0 1 2.884-2.697 7.604 7.604 0 0 1 3.865-.876 7.865 7.865 0 0 1 4.343 1.218 7.771 7.771 0 0 1 2.94 3.395c.667 1.437 1.03 3.214 1.03 5.2v13.688h-6.082V32.1c0-1.588-.362-2.835-1.087-3.762-.724-.907-1.716-1.399-2.974-1.399-.915 0-1.716.19-2.421.605a4.727 4.727 0 0 0-1.64 1.758 5.074 5.074 0 0 0-.61 2.553v13.083h-6.025Zm23.87 0V12.722h6.082v12.29a8.874 8.874 0 0 1 3.13-2.62 8.961 8.961 0 0 1 3.981-.954c1.437-.02 2.86.28 4.163.879a9.56 9.56 0 0 1 3.368 2.581 12.36 12.36 0 0 1 3.031 8.47 13.074 13.074 0 0 1-3.165 8.66 10.092 10.092 0 0 1-3.496 2.613 10.168 10.168 0 0 1-4.282.903 8.256 8.256 0 0 1-4.001-.91 8.173 8.173 0 0 1-3.053-2.72l-.172 2.968-5.586.057Zm11.782-4.783a5.562 5.562 0 0 0 2.974-.851c.858-.605 1.526-1.4 2.078-2.364.477-.964.725-2.117.725-3.403a6.426 6.426 0 0 0-.636-3.24 6.478 6.478 0 0 0-2.167-2.507 5.656 5.656 0 0 0-5.948 0c-.839.605-1.525 1.399-2.059 2.363a6.807 6.807 0 0 0-.724 3.403 6.405 6.405 0 0 0 .636 3.24 6.476 6.476 0 0 0 2.166 2.508c.896.548 1.811.85 2.955.85Z" fill="#E3E4E6" fill-opacity=".55"/></g><defs><clipPath id="a"><path fill="#fff" d="M0 0h194.464v60.5H0z"/></clipPath></defs></svg>
